X:32
T:Mrs. Crowley's No. 1
Z: id:dc-polka-26
M:2/4
L:1/8
K:G Major
DG EG/E/|DG EG/E/|DG AG/A/|BA A2|!
DG EG/E/|DG EG/E/|DG AG/A/|BG G2:|!
Bd gd|Bd gd|Bd gd|BA A2|!
[1 Bd gd|Bd gd|GB AG/A/|BG G2:|!
[2 Bd g2|Bd g2|GB AG/A/|BG G2|]!


A/|BG G>A|BG G>B|AF DF|AB c/B/A|!
BG G>A|BG G>B|d/e/d/c/ AF|AG G3/2:|!
A/|Bd ce|dg B2|dc A2|ed B>A|!
Bd ce|dg B2|d/e/d/c/ AF|G2 G3/2:|!

d/c/|dD FA|dD Dd/c/|dD FA|eE Ed/c/|!
dD FA|Bg fe|d/c/B/A/ B/c/d/e/|fd d:|!
f/g/|af ge|fd df/g/|af ga|be ef/g/|!
af ge|fd ec|d/c/B/A/ B/c/d/e/|fd d:|!


D3B|AF2B|AF D>E|FE E2|!
D3B|AF2B|AF EF|D2 D2:|!
d2 cd|BA FA|d2 cd|B3 c|!
d2 cd|BA FB|AF EF|D2 D2:|!
d2 e2|f3f|ed Bc|d3 A|!
Bd/B/ AF|Bd/B/ AF|AF EF|D2 D2:|!


fd Ad|fd Ad|fd/B/ AF|E2 E2|!
fd Ad|fd Ad|fd/B/ AF|D2 D2:|!
FD FA|de f/g/f/e/|dB AF|E2 E2|!
FD FA|de f/g/f/e/|dB AF|D2 D2:|!

A>B ce|fg a2|fe ce|f/a/f/e/ ce|!
A>B ce|fg a2|fe cB|A2 A2:|!
a>g fe|fg a2|fe ce|f/a/f/e/ ce|!
a>g fe|fg a2|fe cB|A2 A2:|!

fA BA|fA BA|d2 e>f|ed BA|!
fA BA|fA BA|d2 e>f|ed d2:|!
fa fe|ed BA|d2 e>f|ed BA|!
fa fe|ed BA|d2 e>f|ed d2:|!


c/B/|AF EC|E2 EF|AA BA/B/|cB Bc/B/|!
AF EC|E2 EF|AA BA/B/|cA A:|!
A/B/|cB cd|e2 dc|Bf fe|fB Bc/B/|!
AF EC|E2 EF|AA BA/B/|cA A:|!


GB AB/A/|Gg e/f/g/e/|dB AG/A/|BA G/F/E/D/|!
GB AB/A/|Gg e/f/g/e/|dB AG/A/|BG G2:|!
Bd g>d|Bd g>d|Bd g>e|f3 g|!
a/b/a/g/ f/g/f/e/|dB AB/A/|Ge d/B/A/B/|G2 G2:|!

AF A2|BG B2|c/B/A/B/ cd|ed B/c/d/B/|!
AF A2|BG B2|c/B/A/B/ cd|ed d2:|!
Ad f>g|fe e2|ef ga|ba ag|!
f>e fg|fe e2|ef g/e/c|ed d2:|!


f/g/f/e/ d/c/d/B/|AD FA|GE e>d|cB BA|!
f/g/f/e/ d/c/d/B/|AD FA|GE e>f|ed d2:|!
Af f/e/f|Ag g/f/g|Af f/e/f|e/f/e/d/ BA|!
Af f/e/f|Ag gg/a/|bg ec|ed d2:|!

D>E|F/E/F/G/ AB|cA Gc|Ad d^c|d2 d>e|!
fd ed|^cA AA/B/|cA GE|D2:|!
d>e|fd ed|^cA A>e|fd e^c|d2 d>e|!
fd ed|^cA AA/B/|cA GE|D2 d>e|!
fd ed|^cA A>e|fd ef|g2 a>g|!
fd ed|^cA AA/B/|cA GE|D2|]!

z|ef/e/ dB|BA B/c/d|ef/e/ dB|BA A2|!
ef/e/ dB|BA B/c/d|ab/a/ gc|ed d:|!
e|f>e fA|B/c/d ef|g>f ga|ba f/g/a|!
f>e fA|B/c/d ef|ab/a/ gc|ed d:|!

D|G>A BG|EG ED|G>A Bd|BA AB|!
G>A BG|EG ED|BG D/E/ F/G/|AG G:|!
B/c/|dB G>A|BG ED|dB G>A|BA AB/c/|!
dB G>A|BG ED|BG D/E/ F/G/|AG G:|!


G/A/B/c/|d2 B2|B/A/B/c/ B2|A>B A/F/D/F/|AG G/A/B/c/|!
d2 B2|B/A/B/c/ B2|A>B A/F/D/F/|AG:|!
G/B/d/g/|b/a/g/f/ a/g/f/e/|dB B/A/B/c/|dA A/F/D/F/|AG G/B/d/g/|!
b/a/g/f/ a/g/f/e/|dB B/A/B/c/|dA A/F/D/F/|AG:|!


z|DF/A/ BA|d2-d>c|BA Bc|BA FA|!
DF/A/ BA|d2-d>c|BA Bc|ed d:|!
e|f2 e2|d2-d>c|BA Bc|BA FA|!
f2 e2|d2-d>c|BA Bc|ed d:|!


z|GB/d/ ed|g2-g>f|ed ef|ed Bd|!
GB/d/ ed|g2-g>f|ed ef|ag g:|!
a|b2 a2|g2-g>f|ed ef|ed Bd|!
b2 a2|g2-g>f|ed ef|ag g:|!